Breeze Round Dark/actions/24/edit-table-insert-column-left.svg

<svg xmlns="http://www.w3.org/2000/svg" viewBox="0 0 24 24" width="24" height="24">
  <defs id="defs3051">
    <style type="text/css" id="current-color-scheme">.ColorScheme-Text {color:#fcfcfc;}.ColorScheme-Highlight {color:#3daee9;}</style>
  </defs>
  <g transform="translate(1,1)">
    <path style="fill:currentColor;fill-opacity:1;stroke:none" d="m 3,3 v 1 h 6 4 V 5 6 H 9 v 1 h 4 V 9 H 9 v 1 h 4 v 2 H 9 3 v 1 h 6 4 v 2 H 9 v 1 h 4 v 2 H 9 v 1 c 0,0 4,0 7,0 3,0 3,-3 3,-3 V 6 C 19,6 19,3 16,3 13.783444,3 9,3 9,3 Z m 11,1 c 0,0 0,0 2,0 2,0 2,2 2,2 H 15 14 V 5 Z m 0,3 h 1 3 v 2 h -4 z m 0,3 h 4 v 2 h -4 z m 0,3 h 4 v 2 H 15 14 Z M 8,14 3,16.5 8,19 Z m 6,2 h 1 3 c 0,0 0,2 -2,2 -2,0 -2,0 -2,0 v -0.900391 z" class="ColorScheme-Text"/>
    <path style="fill:currentColor;fill-opacity:1;stroke:none" class="ColorScheme-Highlight" d="M 3 3 L 3 4 L 3 12 L 3 13 L 9 13 L 9 12 L 9 9.2929688 L 9 4 L 9 3 L 3 3 z M 4 4 L 8 4 L 8 8.2929688 L 4 4.2929688 L 4 4 z M 4 5.7070312 L 8 9.7070312 L 8 12 L 7.7070312 12 L 4 8.2929688 L 4 5.7070312 z M 4 9.7070312 L 6.2929688 12 L 4 12 L 4 9.7070312 z "/>
  </g>
</svg>

<svg xmlns="http://www.w3.org/2000/svg" viewBox="0 0 24 24">
  <defs id="defs3051">
    <style type="text/css" id="current-color-scheme">
      .ColorScheme-Text {
        color:#eff0f1;
      }
      .ColorScheme-Highlight {
        color:#3daee9;
      }
      </style>
  </defs><g transform="translate(1,1)">
 <path 
    style="fill:currentColor;fill-opacity:1;stroke:none" 
    d="M 3 3 L 3 4 L 9 4 L 13 4 L 13 5 L 13 6 L 9 6 L 9 7 L 13 7 L 13 9 L 9 9 L 9 10 L 13 10 L 13 12 L 9 12 L 3 12 L 3 13 L 9 13 L 13 13 L 13 15 L 9 15 L 9 16 L 13 16 L 13 18 L 9 18 L 9 19 L 18 19 L 19 19 L 19 4 L 19 3 L 9 3 L 3 3 z M 14 4 L 18 4 L 18 6 L 15 6 L 14 6 L 14 5 L 14 4 z M 14 7 L 15 7 L 18 7 L 18 9 L 14 9 L 14 7 z M 14 10 L 18 10 L 18 12 L 14 12 L 14 10 z M 14 13 L 18 13 L 18 15 L 15 15 L 14 15 L 14 13 z M 8 14 L 3 16.5 L 8 19 L 8 14 z M 14 16 L 15 16 L 18 16 L 18 18 L 14 18 L 14 17.099609 L 14 16 z "
    class="ColorScheme-Text"
    />  
  <path
     style="fill:currentColor;fill-opacity:1;stroke:none" 
     class="ColorScheme-Highlight"
     d="M 3 3 L 3 4 L 3 12 L 3 13 L 9 13 L 9 12 L 9 9.2929688 L 9 4 L 9 3 L 3 3 z M 4 4 L 8 4 L 8 8.2929688 L 4 4.2929688 L 4 4 z M 4 5.7070312 L 8 9.7070312 L 8 12 L 7.7070312 12 L 4 8.2929688 L 4 5.7070312 z M 4 9.7070312 L 6.2929688 12 L 4 12 L 4 9.7070312 z " />
</g></svg>
